icons/vscode.svg

<?xml version="1.0" encoding="UTF-8"?>
<svg xmlns="http://www.w3.org/2000/svg" xmlns:xlink="http://www.w3.org/1999/xlink" width="32pt" height="32pt"
    viewBox="0 0 32 32" version="1.0">
    <g id="surface1">
        <path style=" stroke:none;fill-rule:nonzero;fill:rgb(14.117647%,53.72549%,79.215686%);fill-opacity:1;"
            d="M 0.914062 11.261719 C 0.914062 11.261719 0.15625 10.714844 1.066406 9.984375 L 3.183594 8.085938 C 3.183594 8.085938 3.789062 7.445312 4.429688 8.003906 L 23.972656 22.835938 L 23.972656 29.945312 C 23.972656 29.945312 23.964844 31.0625 22.535156 30.941406 Z M 0.914062 11.261719 " />
        <path style=" stroke:none;fill-rule:nonzero;fill:rgb(6.27451%,43.921569%,70.196078%);fill-opacity:1;"
            d="M 5.953125 15.84375 L 0.914062 20.433594 C 0.914062 20.433594 0.398438 20.820312 0.914062 21.511719 L 3.253906 23.644531 C 3.253906 23.644531 3.808594 24.242188 4.628906 23.5625 L 9.96875 19.503906 Z M 5.953125 15.84375 " />
        <path style=" stroke:none;fill-rule:nonzero;fill:rgb(3.137255%,46.666667%,72.54902%);fill-opacity:1;"
            d="M 14.796875 15.882812 L 24.035156 8.8125 L 23.972656 1.738281 C 23.972656 1.738281 23.578125 0.191406 22.265625 0.996094 L 9.96875 12.210938 Z M 14.796875 15.882812 " />
        <path style=" stroke:none;fill-rule:nonzero;fill:rgb(23.529412%,60%,83.137255%);fill-opacity:1;"
            d="M 22.535156 30.949219 C 23.070312 31.5 23.722656 31.320312 23.722656 31.320312 L 30.921875 27.765625 C 31.84375 27.132812 31.714844 26.351562 31.714844 26.351562 L 31.714844 5.117188 C 31.714844 4.183594 30.761719 3.859375 30.761719 3.859375 L 24.519531 0.84375 C 23.15625 0 22.265625 0.996094 22.265625 0.996094 C 22.265625 0.996094 23.410156 0.167969 23.972656 1.738281 L 23.972656 29.816406 C 23.972656 30.011719 23.933594 30.199219 23.851562 30.371094 C 23.6875 30.703125 23.328125 31.011719 22.476562 30.882812 Z M 22.535156 30.949219 " />
    </g>
</svg>

<?xml version="1.0" encoding="UTF-8"?>
<svg width="32pt" height="32pt" version="1.0" viewBox="0 0 32 32" xmlns="http://www.w3.org/2000/svg">
    <g>
        <path
            d="m0.91406 11.262s-0.75781-0.54688 0.15234-1.2773l2.1172-1.8984s0.60547-0.64063 1.2461-0.082032l19.543 14.832v7.1094s-0.007812 1.1172-1.4375 0.99609z"
            fill="#2388c9" />
        <path
            d="m5.9531 15.844l-5.0391 4.5898s-0.51562 0.38672 0 1.0781l2.3398 2.1328s0.55469 0.59766 1.375-0.082031l5.3398-4.0586z"
            fill="#1070b2" />
        <path d="m14.797 15.883l9.2383-7.0703-0.0625-7.0742s-0.39453-1.5469-1.707-0.74219l-12.297 11.215z"
            fill="#0877b9" />
        <path
            d="m22.535 30.949c0.53516 0.55078 1.1875 0.37109 1.1875 0.37109l7.1992-3.5547c0.92188-0.63281 0.79297-1.4141 0.79297-1.4141v-21.234c0-0.93359-0.95312-1.2578-0.95312-1.2578l-6.2422-3.0156c-1.3633-0.84375-2.2539 0.15234-2.2539 0.15234s1.1445-0.82812 1.707 0.74219v28.078c0 0.19531-0.039062 0.38281-0.12109 0.55469-0.16406 0.33203-0.52344 0.64062-1.375 0.51172z"
            fill="#3c99d4" />
    </g>
</svg>
